build/img/landings/copywriting/ylearn/i1.svg

<svg width="484" height="425" fill="none" xmlns="http://www.w3.org/2000/svg"><path clip-rule="evenodd" d="M81.9 1l14.8 80.2 63.2-26.3-58.6 46 52.4 25.8L93 115.4l12.7 75.3-31.3-73.2-55.2 59.8 36.4-68.1L1 90.9l52.2-3.3L37.5 54l30.4 24.1L81.9 1z" stroke="#000" stroke-width="3"/><path d="M309.347 0l33.166 179.532L484 120.754 352.706 223.845l117.297 57.712-135.858-25.278L362.595 425l-69.983-164-123.687 133.85 81.393-152.58L128 201.156l116.841-7.31-35.144-75.376 68.158 53.906L309.347 0z" fill="#000"/></svg>

<svg width="484" height="425" viewBox="0 0 484 425" fill="none" xmlns="http://www.w3.org/2000/svg">
<path fill-rule="evenodd" clip-rule="evenodd" d="M81.9 1L96.7 81.2L159.9 54.9L101.3 100.9L153.7 126.7L93 115.4L105.7 190.7L74.4 117.5L19.2 177.3L55.6 109.2L1 90.9L53.2 87.6L37.5 54L67.9 78.1L81.9 1Z" stroke="black" stroke-width="3"/>
<path d="M309.347 0L342.513 179.532L484 120.754L352.706 223.845L470.003 281.557L334.145 256.279L362.595 425L292.612 261L168.925 394.85L250.318 242.27L128 201.156L244.841 193.846L209.697 118.47L277.855 172.376L309.347 0Z" fill="black"/>
</svg>
